epam-assets/icon-sources/18/open-status.svg

<svg width="18" height="18" viewBox="0 0 18 18" fill="none" xmlns="http://www.w3.org/2000/svg">
<g id="18/open-status">
<path id="icon" d="M3.21434 9.77295H1.28577C1.36152 10.5155 1.54459 11.2296 1.81604 11.8962L3.49526 10.9262C3.36269 10.5565 3.268 10.1711 3.21434 9.77295ZM4.38221 2.74589C3.8109 3.16928 3.2964 3.67167 2.86082 4.23725L4.54003 5.20726C4.78308 4.91973 5.05453 4.65748 5.34808 4.42051L4.38221 2.74589ZM9.9091 1.28613V3.21984C12.6773 3.66535 14.7984 6.07616 14.7984 8.9704C14.7984 12.1838 12.188 14.7968 8.97796 14.7968C8.22042 14.7968 7.49444 14.6515 6.82844 14.386L5.86257 16.0607C6.81581 16.4809 7.87005 16.7147 8.9748 16.7147C13.2454 16.7147 16.708 13.2486 16.708 8.97356C16.7143 5.01136 13.741 1.74744 9.9091 1.28613ZM8.04681 3.21984V1.28613C7.33031 1.37144 6.64221 1.55786 5.9983 1.82643L6.96732 3.50421C7.31453 3.37782 7.67436 3.27987 8.04681 3.21984ZM1.90758 5.83603C1.62035 6.48692 1.41834 7.18204 1.31733 7.91192H3.25537C3.32481 7.52644 3.43529 7.15676 3.57733 6.80288L1.90758 5.83603ZM4.39168 12.5566L2.71878 13.5235C3.15437 14.1238 3.67518 14.6578 4.26227 15.1128L5.23129 13.4318C4.92512 13.1696 4.6442 12.8757 4.39168 12.5566Z" fill="#6C6F80"/>
</g>
</svg>

<svg xmlns="http://www.w3.org/2000/svg" width="18" height="18" fill="none" viewBox="0 0 18 18">
  <path fill="#6C6F80" d="M3.214 9.773H1.286c.076.742.259 1.457.53 2.123l1.68-.97a5.646 5.646 0 0 1-.282-1.153Zm1.168-7.027a7.734 7.734 0 0 0-1.521 1.491l1.679.97c.243-.287.515-.55.808-.786l-.966-1.675Zm5.527-1.46V3.22a5.832 5.832 0 0 1 4.89 5.75 5.83 5.83 0 0 1-5.821 5.827 5.794 5.794 0 0 1-2.15-.411l-.965 1.675c.953.42 2.007.654 3.112.654 4.27 0 7.733-3.466 7.733-7.741a7.732 7.732 0 0 0-6.799-7.688ZM8.047 3.22V1.286a7.68 7.68 0 0 0-2.049.54l.97 1.678a5.897 5.897 0 0 1 1.079-.284Zm-6.14 2.616a7.772 7.772 0 0 0-.59 2.076h1.938c.07-.386.18-.755.322-1.11l-1.67-.966Zm2.485 6.72-1.673.968c.435.6.956 1.134 1.543 1.589l.97-1.681a6.292 6.292 0 0 1-.84-.875Z"/>
</svg>
